icons/cursor-square-dashed.svg

<svg xmlns="http://www.w3.org/2000/svg" viewBox="0 0 24 24" fill="currentColor">
  <path d="M9.50001 8.55005c-.30391 0-.63578.10011-.88035.3447-.25115.25117-.3845.65003-.23133 1.04822l1.10593 4.22263.03493.0699c.10687.2137.31964.4836.67731.5857.4114.1175.7816-.0486 1.0238-.2908l.9796-.9796 2.1698 2.0895c.2984.2873.7732.2783 1.0605-.02.2873-.2984.2783-.7732-.02-1.0605L13.2708 12.49l1.0595-1.0596c.2423-.2422.4084-.6125.2908-1.0239-.1021-.3576-.3719-.57037-.5857-.67723l-.0698-.03493-4.369-1.14429h-.09659Zm2.17819 3.41115 1.0424-1.0423-2.7121-.7104.7103 2.7121.9427-.9427c.0055-.0057.0111-.0113.0167-.0167Z"/>
  <path d="M9 3.75c-.35037 0-.69245.03474-1.02318.1008-.4062.08112-.80124-.18241-.88236-.5886-.08112-.40619.1824-.80124.58859-.88236C8.10973 2.29463 8.5502 2.25 9 2.25h1.5c.4142 0 .75.33579.75.75s-.3358.75-.75.75H9ZM12.75 3c0-.41421.3358-.75.75-.75H15c.4498 0 .8903.04463 1.3169.12984.4062.08112.6698.47617.5886.88236-.0811.40619-.4761.66972-.8823.5886C15.6925 3.78474 15.3504 3.75 15 3.75h-1.5c-.4142 0-.75-.33579-.75-.75Zm-6.45703.59739c.23093.34387.13937.80984-.2045 1.04076-.57226.38431-1.06601.87806-1.45032 1.45032-.23092.34387-.69689.43543-1.04076.2045-.34386-.23093-.43542-.69689-.20449-1.04076.49281-.73384 1.12547-1.3665 1.85931-1.85931.34387-.23093.80983-.13937 1.04076.20449Zm11.41403 0c.231-.34386.6969-.43542 1.0408-.20449.7338.49281 1.3665 1.12547 1.8593 1.85931.2309.34387.1394.80983-.2045 1.04076-.3439.23093-.8098.13937-1.0408-.2045-.3843-.57226-.878-1.06601-1.4503-1.45032-.3438-.23092-.4354-.69689-.2045-1.04076ZM3.2622 7.09446c.40619.08112.66972.47616.5886.88236C3.78474 8.30755 3.75 8.64963 3.75 9v1.5c0 .4142-.33579.75-.75.75s-.75-.3358-.75-.75V9c0-.4498.04463-.89027.12984-1.31695.08112-.40619.47617-.66971.88236-.58859Zm17.4756 0c.4062-.08112.8012.1824.8824.58859.0852.42668.1298.86715.1298 1.31695v1.5c0 .4142-.3358.75-.75.75s-.75-.3358-.75-.75V9c0-.35037-.0347-.69245-.1008-1.02318-.0811-.4062.1824-.80124.5886-.88236ZM3 12.75c.41421 0 .75.3358.75.75V15c0 .3504.03474.6925.1008 1.0232.08112.4062-.18241.8012-.5886.8823-.40619.0812-.80124-.1824-.88236-.5886C2.29463 15.8903 2.25 15.4498 2.25 15v-1.5c0-.4142.33579-.75.75-.75Zm18 0c.4142 0 .75.3358.75.75V15c0 .4498-.0446.8903-.1298 1.3169-.0812.4062-.4762.6698-.8824.5886-.4062-.0811-.6697-.4761-.5886-.8823.0661-.3307.1008-.6728.1008-1.0232v-1.5c0-.4142.3358-.75.75-.75ZM3.59739 17.707c.34387-.2309.80984-.1393 1.04076.2045.38431.5723.87806 1.066 1.45032 1.4503.34387.231.43543.6969.2045 1.0408s-.69689.4354-1.04076.2045c-.73384-.4928-1.3665-1.1255-1.85931-1.8593-.23093-.3439-.13937-.8098.20449-1.0408Zm16.80521 0c.3439.231.4354.6969.2045 1.0408-.4928.7338-1.1255 1.3665-1.8593 1.8593-.3439.2309-.8098.1394-1.0408-.2045-.2309-.3439-.1393-.8098.2045-1.0408.5723-.3843 1.066-.878 1.4503-1.4503.231-.3438.6969-.4354 1.0408-.2045ZM7.09446 20.7378c.08112-.4062.47616-.6697.88236-.5886.33073.0661.67281.1008 1.02318.1008h1.5c.4142 0 .75.3358.75.75s-.3358.75-.75.75H9c-.4498 0-.89027-.0446-1.31695-.1298-.40619-.0812-.66971-.4762-.58859-.8824Zm9.81104 0c.0812.4062-.1824.8012-.5886.8824-.4266.0852-.8671.1298-1.3169.1298h-1.5c-.4142 0-.75-.3358-.75-.75s.3358-.75.75-.75H15c.3504 0 .6925-.0347 1.0232-.1008.4062-.0811.8012.1824.8823.5886Z"/>
</svg>

<svg width="24" height="24" viewBox="0 0 24 24" fill="none" xmlns="http://www.w3.org/2000/svg">
<path fill-rule="evenodd" clip-rule="evenodd" d="M9.50001 8.55005C9.1961 8.55005 8.86423 8.65016 8.61966 8.89475C8.36851 9.14592 8.23516 9.54478 8.38833 9.94297L9.49426 14.1656L9.52919 14.2355C9.63606 14.4492 9.84883 14.7191 10.2065 14.8212C10.6179 14.9387 10.9881 14.7726 11.2303 14.5304L12.2099 13.5508L14.3797 15.6403C14.6781 15.9276 15.1529 15.9186 15.4402 15.6203C15.7275 15.3219 15.7185 14.8471 15.4202 14.5598L13.2708 12.49L14.3303 11.4304C14.5726 11.1882 14.7387 10.8179 14.6211 10.4065C14.519 10.0489 14.2492 9.83613 14.0354 9.72927L13.9656 9.69434L9.5966 8.55005H9.50001ZM11.6782 11.9612L12.7206 10.9189L10.0085 10.2085L10.7188 12.9206L11.6615 11.9779C11.667 11.9722 11.6726 11.9666 11.6782 11.9612Z" fill="black"/>
<path fill-rule="evenodd" clip-rule="evenodd" d="M9 3.75C8.64963 3.75 8.30755 3.78474 7.97682 3.8508C7.57062 3.93192 7.17558 3.66839 7.09446 3.2622C7.01334 2.85601 7.27686 2.46096 7.68305 2.37984C8.10973 2.29463 8.5502 2.25 9 2.25H10.5C10.9142 2.25 11.25 2.58579 11.25 3C11.25 3.41421 10.9142 3.75 10.5 3.75H9ZM12.75 3C12.75 2.58579 13.0858 2.25 13.5 2.25H15C15.4498 2.25 15.8903 2.29463 16.3169 2.37984C16.7231 2.46096 16.9867 2.85601 16.9055 3.2622C16.8244 3.66839 16.4294 3.93192 16.0232 3.8508C15.6925 3.78474 15.3504 3.75 15 3.75H13.5C13.0858 3.75 12.75 3.41421 12.75 3ZM6.29297 3.59739C6.5239 3.94126 6.43234 4.40723 6.08847 4.63815C5.51621 5.02246 5.02246 5.51621 4.63815 6.08847C4.40723 6.43234 3.94126 6.5239 3.59739 6.29297C3.25353 6.06204 3.16197 5.59608 3.3929 5.25221C3.88571 4.51837 4.51837 3.88571 5.25221 3.3929C5.59608 3.16197 6.06204 3.25353 6.29297 3.59739ZM17.707 3.59739C17.938 3.25353 18.4039 3.16197 18.7478 3.3929C19.4816 3.88571 20.1143 4.51837 20.6071 5.25221C20.838 5.59608 20.7465 6.06204 20.4026 6.29297C20.0587 6.5239 19.5928 6.43234 19.3618 6.08847C18.9775 5.51621 18.4838 5.02246 17.9115 4.63815C17.5677 4.40723 17.4761 3.94126 17.707 3.59739ZM3.2622 7.09446C3.66839 7.17558 3.93192 7.57062 3.8508 7.97682C3.78474 8.30755 3.75 8.64963 3.75 9V10.5C3.75 10.9142 3.41421 11.25 3 11.25C2.58579 11.25 2.25 10.9142 2.25 10.5V9C2.25 8.5502 2.29463 8.10973 2.37984 7.68305C2.46096 7.27686 2.85601 7.01334 3.2622 7.09446ZM20.7378 7.09446C21.144 7.01334 21.539 7.27686 21.6202 7.68305C21.7054 8.10973 21.75 8.5502 21.75 9V10.5C21.75 10.9142 21.4142 11.25 21 11.25C20.5858 11.25 20.25 10.9142 20.25 10.5V9C20.25 8.64963 20.2153 8.30755 20.1492 7.97682C20.0681 7.57062 20.3316 7.17558 20.7378 7.09446ZM3 12.75C3.41421 12.75 3.75 13.0858 3.75 13.5V15C3.75 15.3504 3.78474 15.6925 3.8508 16.0232C3.93192 16.4294 3.66839 16.8244 3.2622 16.9055C2.85601 16.9867 2.46096 16.7231 2.37984 16.3169C2.29463 15.8903 2.25 15.4498 2.25 15V13.5C2.25 13.0858 2.58579 12.75 3 12.75ZM21 12.75C21.4142 12.75 21.75 13.0858 21.75 13.5V15C21.75 15.4498 21.7054 15.8903 21.6202 16.3169C21.539 16.7231 21.144 16.9867 20.7378 16.9055C20.3316 16.8244 20.0681 16.4294 20.1492 16.0232C20.2153 15.6925 20.25 15.3504 20.25 15V13.5C20.25 13.0858 20.5858 12.75 21 12.75ZM3.59739 17.707C3.94126 17.4761 4.40723 17.5677 4.63815 17.9115C5.02246 18.4838 5.51621 18.9775 6.08847 19.3618C6.43234 19.5928 6.5239 20.0587 6.29297 20.4026C6.06204 20.7465 5.59608 20.838 5.25221 20.6071C4.51837 20.1143 3.88571 19.4816 3.3929 18.7478C3.16197 18.4039 3.25353 17.938 3.59739 17.707ZM20.4026 17.707C20.7465 17.938 20.838 18.4039 20.6071 18.7478C20.1143 19.4816 19.4816 20.1143 18.7478 20.6071C18.4039 20.838 17.938 20.7465 17.707 20.4026C17.4761 20.0587 17.5677 19.5928 17.9115 19.3618C18.4838 18.9775 18.9775 18.4838 19.3618 17.9115C19.5928 17.5677 20.0587 17.4761 20.4026 17.707ZM7.09446 20.7378C7.17558 20.3316 7.57062 20.0681 7.97682 20.1492C8.30755 20.2153 8.64963 20.25 9 20.25H10.5C10.9142 20.25 11.25 20.5858 11.25 21C11.25 21.4142 10.9142 21.75 10.5 21.75H9C8.5502 21.75 8.10973 21.7054 7.68305 21.6202C7.27686 21.539 7.01334 21.144 7.09446 20.7378ZM16.9055 20.7378C16.9867 21.144 16.7231 21.539 16.3169 21.6202C15.8903 21.7054 15.4498 21.75 15 21.75H13.5C13.0858 21.75 12.75 21.4142 12.75 21C12.75 20.5858 13.0858 20.25 13.5 20.25H15C15.3504 20.25 15.6925 20.2153 16.0232 20.1492C16.4294 20.0681 16.8244 20.3316 16.9055 20.7378Z" fill="black"/>
</svg>
